outputs/icons/editor/strikethrough_sharp.svg

<svg xmlns="http://www.w3.org/2000/svg" width="1200" height="1200" fill="none"><g clip-path="url(#a)"><path fill="#000" d="M500 950h200V800H500zM250 200v150h250v150h200V350h250V200zM150 700h900V600H150z"/></g><defs><clipPath id="a"><path fill="#fff" d="M0 0h1200v1200H0z"/></clipPath></defs></svg>

<svg width="1200" height="1200" viewBox="0 0 1200 1200" fill="none" xmlns="http://www.w3.org/2000/svg"><g clip-path="url(#clip0_125_1477)"><path d="M500 950H700V800H500V950ZM250 200V350H500V500H700V350H950V200H250ZM150 700H1050V600H150V700Z" fill="#1D1E23"/></g><defs><clipPath id="clip0_125_1477"><path width="24" fill="white" d="M0 0H1200V1200H0V0z"/></clipPath></defs></svg>
